!!!ONB: MCCC : IJB0109_00 : Extracted Monophonic Melody
!!!COM: Brahms, Johannes
!!!OTL: Scherzo
!!!SCT: Op.4
!!!ODT: 1851///
**kern
*staff1
*clefG2
*k[b-e-a-d-g-c-]
*G-:
*M3/4
8ff
8gg-
8ee-
=3
4bb-
4r
4r
=4
4r
8r
8ff
8gg-
8ee-
=5
4bb-
4r
4r
=6
4r
8r
8ff
8gg-
8ee-
=7
4ccc-
4r
4bb-
=8
4aa-
4r
4gg-
=9
4ff
4r
4ee-
=10
4dd
4r
4r
=11
4r
8r
8f-
8f
8d
=12
4r
8r
8ff
8gg-
8ee-
=13
4bb-
8r
8ff
8gg-
8ee-
=14
4bb-
4r
4r
=15
4r
8r
8aa-
8bb-
8gg-
=16
4ddd-
4r
4r
=17
4r
8r
8ccc
8ddd-[
8ddd-]
=18
4ddd
4eee-
4fff-
=19
2.ggg-
=20
2.fff
=21
4eee-
4ddd-
4ccc
=22
4bb-
4r
4r
=23
4r
4b--
4cc
=24
4ee-
4bb--
4ccc
=25
4ggg-
4fff
4fff
=26
4ggg-
4fff
4fff
=27
4ggg-
4fff
4fff
=28
4ggg-
4fff
4fff
=29
4ggg-
4fff
4fff
=30
4ggg-
4fff
4fff
=31
4ggg-
4fff
4fff
=32
2.r
=33
4ggg-
4fff
4fff
=34
4r
8r
8ff
8gg-
8ee-
=35
4bb-
4r
4r
=36
4r
8r
8ff
8gg-
8ee-
=37
4bb-
4r
4r
=38
4r
8r
8ff
8gg-
8ee-
=39
4ccc-
4r
4bb-
=40
4aa-
4r
4gg-
=41
4ff
4r
4ee-
=42
4dd
4r
4r
=43
4r
8r
8f-
8f
8d
=44
4r
8r
8ff
8gg-
8ee-
=45
4bb-
8r
8ff
8gg-
8ee-
=46
4bb-
4r
4r
=47
4r
8r
8aa-
8bb-
8gg-
=48
4ddd-
4r
4r
=49
4r
8r
8ccc
8ddd-[
8ddd-]
=50
4ddd
4eee-
4fff-
=51
2.ggg-
=52
2.fff
=53
4eee-
4ddd-
4ccc
=54
4bb-
4r
4r
=55
4r
4b--
4cc
=56
4ee-
4bb--
4ccc
=57
4ggg-
4fff
4fff
=58
4ggg-
4fff
4fff
=59
4ggg-
4fff
4fff
=60
4ggg-
4fff
4fff
=61
4ggg-
4fff
4fff
=62
4ggg-
4fff
4fff
=63
4ggg-
4fff
4fff
=64
2.r
=65
4ggg-
4fff
4fff
=66
2.r
=67
2.r
=68
4r
8r
8f
8g-
8e-
=69
2.r
=70
4r
8r
8F
8G-
8E-
=71
4r
8r
8g-
8g
8e-
=72
4r
8r
8g
8a-
8e-
=73
8r
8a-
8b--
8g-
8a-
8ee-
=74
8r
8b-
8cc-
8b--
8ee-
8gg-
=75
8r
8dd
8ee-
8cc-
8ee-
8bb--
=76
8r
8ff
8gg-
8ee-
8bb--
8eee-
=77
4ddd
4r
4r
=78
2.r
=79
4cc-
4b-
4b-
=80
4cc-
4b-
4b-
=81
4cc-
4b-
4b-
=82
4cc-
4b-
4b-
=83
4cc-
4b-
4b-
=84
4cc-
4b-
4r
=85
4cc-
4b-
4b-
=86
4cc-
4b-
4b-
=87
2.ee-
=88
2dd-
4ee-
=89
2.dd-
=90
2.cc-
=91
2.b-
=92
8b-
8a-
4g-
4a-
=93
2b-
4cc-
=94
4cc
4dd-
4dd
=95
4ee-
4r
4r
=96
4ff
4r
4gg-
=97
4ff
4r
4r
=98
4ee-
4r
4r
=99
4gg-
4r
4r
=100
4aa-
4r
4bb-
=101
4aa-
4r
4r
=102
4gg-
4r
4r
=103
2.eee-
=104
2ddd-
4eee-
=105
2.ddd-
=106
2.ccc-
=107
2.bb-
=108
8bb-
8aa-
4gg-
4aa-
=109
2.bb-[
=110
4bb-]
8r
8ff
8gg-
8ee-
=111
4bb-
8r
8ff
8gg-
8ee-
=112
4bb-
8r
8ff
8gg-
8ee-
=113
4bb-
4r
4r
=114
2.r
=115
4r
8r
8ff
8gg-
8ee-
=116
4bb-
8r
8ff
8gg-
8ee-
=117
4bb-
4r
4r
=118
4r
8r
8ff
8gg-
8ee-
=119
4ccc-
4r
4bb-
=120
4aa-
4r
4gg-
=121
4ff
4r
4ee-
=122
4dd
4r
4r
=123
2.r
=124
4r
8r
8ff
8gg-
8ee-
=125
4bb-
8r
8ff
8gg-
8ee-
=126
4bb-
4r
4r
=127
4r
8r
8aa-
8bb--
8gg-
=128
4ddd-
4r
4r
=129
4r
8r
8ccc-
8ddd-
8bb--
=130
4fff-
8r
8ccc-
8ddd-
8bb--
=131
4fff-
8r
8ccc-
8ddd-
8bb--
=132
4fff-
4ddd
4ddd
=133
4ddd
4ddd
4ddd
=134
4eee-
4eee-
4eee-
=135
4r
4r
4bb-
=136
2.ccc-
=137
2.bb-
=138
4aa-
4gg-
4ff
=139
4ee-
4r
4b-
=140
2.cc-
=141
2.b-
=142
4a-
4g-
4f
=143
2cc
4f
=144
2.ff
=145
2.ee-
=146
2dd-
4cc
=147
4cc
2b-
=148
2.ccc-[
=149
4ccc-]
4r
4r
=150
4r
8r
8d-
8d
8c-
=151
4f
4r
4r
=152
4r
8r
8e
8f
8d
=153
4a-
4r
4r
=154
4r
8r
8b-
8cc-
8f
=155
8dd
8cc#
8dd
8cc-
8ff
8ee
=156
8ff
8dd
8ccc-
8bb-
8ccc-
8ff
=157
8aaa-
8ggg-
8fff
8eee-
8ddd
8ccc-
=158
8bb-
8aa-
8gg-
8ff
8ee-
8dd
=159
8cc-
8b-
8a-
8g-
8f
8e-
=160
8d
8c-
8B-
8A-
8G-
8F
=161
4ee-
4r
4r
=162
4ff
4r
4gg-
=163
4ff
4r
4r
=164
4ee-
4r
4r
=165
4gg-
4r
4r
=166
4aa-
4r
4bb-
=167
4aa-
4r
4r
=168
4gg-
4r
4r
=169
4eee-
4r
4r
=170
4fff
4r
4ggg-
=171
4fff
4r
4r
=172
4eee-
4r
4r
=173
4ggg-
4r
4r
=174
4aaa-
4r
4bbb-
=175
4cccc-
4aaa-
4fff
=176
4ddd
4ccc-
4bb-
=177
4ggg-
4r
4ggg-
=178
4ggg-
4aaa-
4bbb-
=179
4cccc-
4aaa-
4fff
=180
4ddd
4ccc-
4bb-
=181
4ee-
8r
8B-
8c-
8A-
=182
4e-
8r
8B-
8c-
8A-
=183
4e-
4r
4r
=184
4e-
4r
4r
=185
2.r
=186
2.r
=187
2.r
=188
2.r
=189
2.r
=190
4r
4r
4b-
=191
2ccc
4bb-
=192
4aa-
4gg
4ff
=193
4ee-
4dd
4cc
=194
4b-
4cc
4dd
=195
4ee-
4r
4g
=196
2.c[
=197
2c]
4f
=198
4d
4r
4g
=199
2.c[
=200
2c]
4e-
=201
4c
4r
4f
=202
4d
4r
4g
=203
2b-
4a
=204
2g
4b--
=205
2g
4f#
=206
4r
4r
4g
=207
2.c[
=208
2c]
4f
=209
4d
4r
4ff
=210
4dd
4r
4g
=211
2.c[
=212
2c]
4e-
=213
4c
4r
4ff
=214
4dd
4r
4g
=215
2b-
4a
=216
2g
4b--
=217
2.f[
=218
2.f]
=219
2dd
4b-
=220
2g
4b-
=221
2.f[
=222
2.f]
=223
4r
4r
4f[
=224
4f]
4ee-
4cc
=225
4b--
4r
4f[
=226
4f]
4gg
4ee-
=227
4b--
4r
4f[
=228
4f]
4ee-
4cc
=229
4b--
4r
4f[
=230
4f]
4gg
4ee-
=231
4b--
4r
4f[
=232
4f]
4ee-
4b--[
=233
4b--]
4gg
4f[
=234
4f]
4ee-
4b--[
=235
4b--]
4gg
4f
=236
4ggg
4fff
4eee-
=237
4ddd
4ccc
4bb-
=238
2bb--
4r
=239
4r
4r
4b-
=240
2ccc
4bb-
=241
4aa-
4gg
4ff
=242
4ee-
4dd
4cc
=243
4b-
4cc
4dd
=244
4ee-
4r
4g
=245
2.c[
=246
2c]
4f
=247
4d
4r
4g
=248
2.c[
=249
2c]
4e-
=250
4c
4r
4f
=251
4d
4r
4g
=252
2b-
4a
=253
2g
4b--
=254
2g
4f#
=255
4r
4r
4g
=256
2.c[
=257
2c]
4f
=258
4d
4r
4ff
=259
4dd
4r
4g
=260
2.c[
=261
2c]
4e-
=262
4c
4r
4ff
=263
4dd
4r
4g
=264
2b-
4a
=265
2g
4b--
=266
2.f[
=267
2.f]
=268
2dd
4b-
=269
2g
4b-
=270
2.f
=271
2.f[
=272
4f]
4r
4f[
=273
4f]
4ee-
4cc
=274
4b--
4r
4f[
=275
4f]
4gg
4ee-
=276
4b--
4r
4f[
=277
4f]
4ee-
4cc
=278
4b--
4r
4f[
=279
4f]
4gg
4ee-
=280
4b--
4r
4f[
=281
4f]
4ee-
4b--[
=282
4b--]
4gg
4f[
=283
4f]
4ee-
4b--[
=284
4b--]
4gg
4f
=285
4ggg
4fff
4eee-
=286
4ddd
4ccc
4bb-
=287
2bb--
4r
=288
4r
4r
4b-
=289
2ccc
4bb-
=290
4aa-
4gg
4ff
=291
2ccc
4bb-
=292
4aa-
4gg
4ff
=293
2.r
=294
2.r
=295
4r
4r
4b-[
=296
4b-]
4gg-
4ee-
=297
4b-
4r
4b-[
=298
4b-]
4bb-
4gg
=299
4ee-
4r
4r
=300
2.r
=301
4r
4r
4g-[
=302
4g-]
4ee-
4cc
=303
4g-
4r
4g-[
=304
4g-]
4ccc
4gg-
=305
4ee-
4r
4r
=306
2.r
=307
4r
4ff-
4dd-[
=308
4dd-]
4ddd-
4ff-[
=309
4ff-]
4fff-
4bb--[
=310
4bb--]
4fff-
4bb--
=311
4r
4r
4g-[
=312
4g-]
4ff-
4dd-
=313
4b-
4r
4g-[
=314
4g-]
4aa-
4ff-
=315
4b-
4r
4g-[
=316
4g-]
4ff-
4b-[
=317
4b-]
4aa-
4f[
=318
4f]
4ff
4dd-
=319
4b-
4r
4f[
=320
4f]
4bb-
4ff
=321
4dd-
4r
4f-[
=322
4f-]
4dd-
4b-[
=323
4b-]
4gg
4b-
=324
2cccc
4bbb-
=325
4aaa-
4ggg
4fff
=326
4eee-
4ddd
4ccc
=327
4bb-
4ccc
4ddd
=328
4eee-
4r
4cc
=329
2.f[
=330
2f]
4b-
=331
4g
4r
4cc
=332
2.f[
=333
2f]
4a-
=334
4f
4r
4b-
=335
4g
4r
4cc
=336
2ee-
4dd
=337
2cc
4dd
=338
2cc
4b
=339
4r
4r
4cc
=340
2.f[
=341
2f]
4b-
=342
4g
4r
4bb-
=343
4gg
4r
4cc
=344
2.f[
=345
2f]
4a-
=346
4f
4r
4bb-
=347
4gg
4r
4cc
=348
2ee-
4dd
=349
2cc
4dd
=350
2.b-[
=351
2.b-]
=352
2gg
4ee-
=353
2cc
4ee-
=354
2.b-
=355
2.b-[
=356
4b-]
4r
4b-[
=357
4b-]
4aa-
4ff
=358
4dd
4r
4b-[
=359
4b-]
4ccc
4aa-
=360
4dd
4r
4b-[
=361
4b-]
4aa-
4ff
=362
4dd
4r
4b-[
=363
4b-]
4ccc
4aa-
=364
4dd
4r
4b-[
=365
4b-]
4aa-
4dd[
=366
4dd]
4ccc
4b-[
=367
4b-]
4aa-
4dd[
=368
4dd]
4ccc
4b-
=369
2cccc
4bbb-
=370
4aaa-
4ggg
4fff
=371
4eee-
4ddd
4ccc
=372
4bb-
4aa-
4gg
=373
4ff
4r
4r
=374
4bb-
4r
4r
=375
2.r
=376
2.r
=377
4F
4r
4r
=378
2.r
=379
4B-
4r
4r
=380
2.r
=381
2.r
=382
2.r
=383
2.r
=384
4r
8r
8ff
8gg-
8ee-
=385
4bb-
4r
4r
=386
4r
8r
8ff
8gg-
8ee-
=387
4bb-
4r
4r
=388
4r
8r
8ff
8gg-
8ee-
=389
4ccc-
4r
4bb-
=390
4aa-
4r
4gg-
=391
4ff
4r
4ee-
=392
4dd
4r
4r
=393
4r
8r
8f-
8f
8d
=394
4r
8r
8ff
8gg-
8ee-
=395
4bb-
8r
8ff
8gg-
8ee-
=396
4bb-
4r
4r
=397
4r
8r
8aa-
8bb-
8gg-
=398
4ddd-
4r
4r
=399
4r
8r
8ccc
8ddd-[
8ddd-]
=400
4ddd
4eee-
4fff-
=401
2.ggg-
=402
2.fff
=403
4eee-
4ddd-
4ccc
=404
4bb-
4r
4r
=405
4r
4b--
4cc
=406
4ee-
4bb--
4ccc
=407
4ggg-
4fff
4fff
=408
4ggg-
4fff
4fff
=409
4ggg-
4fff
4fff
=410
4ggg-
4fff
4fff
=411
4ggg-
4fff
4fff
=412
4ggg-
4fff
4fff
=413
4ggg-
4fff
4fff
=414
2.r
=415
4ggg-
4fff
4fff
=416
4r
8r
8ff
8gg-
8ee-
=417
4bb-
4r
4r
=418
4r
8r
8ff
8gg-
8ee-
=419
4bb-
4r
4r
=420
4r
8r
8ff
8gg-
8ee-
=421
4ccc-
4r
4bb-
=422
4aa-
4r
4gg-
=423
4ff
4r
4ee-
=424
4dd
4r
4r
=425
4r
8r
8f-
8f
8d
=426
4r
8r
8ff
8gg-
8ee-
=427
4bb-
8r
8ff
8gg-
8ee-
=428
4bb-
4r
4r
=429
4r
8r
8aa-
8bb-
8gg-
=430
4ddd-
4r
4r
=431
4r
8r
8ccc
8ddd-[
8ddd-]
=432
4ddd
4eee-
4fff-
=433
2.ggg-
=434
2.fff
=435
4eee-
4ddd-
4ccc
=436
4bb-
4r
4r
=437
4r
4b--
4cc
=438
4ee-
4bb--
4ccc
=439
4ggg-
4fff
4fff
=440
4ggg-
4fff
4fff
=441
4ggg-
4fff
4fff
=442
4ggg-
4fff
4fff
=443
4ggg-
4fff
4fff
=444
4ggg-
4fff
4fff
=445
4ggg-
4fff
4fff
=446
2.r
=447
4ggg-
4fff
4fff
=448
2.r
=449
2.r
=450
4r
8r
8f
8g-
8e-
=451
2.r
=452
4r
8r
8F
8G-
8E-
=453
4r
8r
8g-
8g
8e-
=454
4r
8r
8g
8a-
8e-
=455
8r
8a-
8b--
8g-
8a-
8ee-
=456
8r
8b-
8cc-
8b--
8ee-
8gg-
=457
8r
8dd
8ee-
8cc-
8ee-
8bb--
=458
8r
8ff
8gg-
8ee-
8bb--
8eee-
=459
4ddd
4r
4r
=460
2.r
=461
4cc-
4b-
4b-
=462
4cc-
4b-
4b-
=463
4cc-
4b-
4b-
=464
4cc-
4b-
4b-
=465
4cc-
4b-
4b-
=466
4cc-
4b-
4r
=467
4cc-
4b-
4b-
=468
4cc-
4b-
4b-
=469
2.ee-
=470
2dd-
4ee-
=471
2.dd-
=472
2.cc-
=473
2.b-
=474
8b-
8a-
4g-
4a-
=475
2b-
4cc-
=476
4cc
4dd-
4dd
=477
4ee-
4r
4r
=478
4ff
4r
4gg-
=479
4ff
4r
4r
=480
4ee-
4r
4r
=481
4gg-
4r
4r
=482
4aa-
4r
4bb-
=483
4aa-
4r
4r
=484
4gg-
4r
4r
=485
2.eee-
=486
2ddd-
4eee-
=487
2.ddd-
=488
2.ccc-
=489
2.bb-
=490
8bb-
8aa-
4gg-
4aa-
=491
2.bb-[
=492
4bb-]
8r
8ff
8gg-
8ee-
=493
4bb-
8r
8ff
8gg-
8ee-
=494
4bb-
8r
8ff
8gg-
8ee-
=495
4bb-
4r
4r
=496
2.r
=497
4r
8r
8ff
8gg-
8ee-
=498
4bb-
8r
8ff
8gg-
8ee-
=499
4bb-
4r
4r
=500
4r
8r
8ff
8gg-
8ee-
=501
4ccc-
4r
4bb-
=502
4aa-
4r
4gg-
=503
4ff
4r
4ee-
=504
4dd
4r
4r
=505
2.r
=506
4r
8r
8ff
8gg-
8ee-
=507
4bb-
8r
8ff
8gg-
8ee-
=508
4bb-
4r
4r
=509
4r
8r
8aa-
8bb--
8gg-
=510
4ddd-
4r
4r
=511
4r
8r
8ccc-
8ddd-
8bb--
=512
4fff-
8r
8ccc-
8ddd-
8bb--
=513
4fff-
8r
8ccc-
8ddd-
8bb--
=514
4fff-
4ddd
4ddd
=515
4ddd
4ddd
4ddd
=516
4eee-
4eee-
4eee-
=517
4r
4r
4bb-
=518
2.ccc-
=519
2.bb-
=520
4aa-
4gg-
4ff
=521
4ee-
4r
4b-
=522
2.cc-
=523
2.b-
=524
4a-
4g-
4f
=525
2cc
4f
=526
2.ff
=527
2.ee-
=528
2dd-
4cc
=529
4cc
2b-
=530
2.ccc-[
=531
4ccc-]
4r
4r
=532
4r
8r
8d-
8d
8c-
=533
4f
4r
4r
=534
4r
8r
8e
8f
8d
=535
4a-
4r
4r
=536
4r
8r
8b-
8cc-
8f
=537
8dd
8cc#
8dd
8cc-
8ff
8ee
=538
8ff
8dd
8ccc-
8bb-
8ccc-
8ff
=539
8aaa-
8ggg-
8fff
8eee-
8ddd
8ccc-
=540
8bb-
8aa-
8gg-
8ff
8ee-
8dd
=541
8cc-
8b-
8a-
8g-
8f
8e-
=542
8d
8c-
8B-
8A-
8G-
8F
=543
4ee-
4r
4r
=544
4ff
4r
4gg-
=545
4ff
4r
4r
=546
4ee-
4r
4r
=547
4gg-
4r
4r
=548
4aa-
4r
4bb-
=549
4aa-
4r
4r
=550
4gg-
4r
4r
=551
4eee-
4r
4r
=552
4fff
4r
4ggg-
=553
4fff
4r
4r
=554
4eee-
4r
4r
=555
4ggg-
4r
4r
=556
4aaa-
4r
4bbb-
=557
4cccc-
4aaa-
4fff
=558
4ddd
4ccc-
4bb-
=559
4ggg-
4r
4ggg-
=560
4ggg-
4aaa-
4bbb-
=561
4cccc-
4aaa-
4fff
=562
4ddd
4ccc-
4bb-
=563
4ee-
8r
8B-
8c-
8A-
=564
4e-
8r
8B-
8c-
8A-
=565
4e-
4r
4r
=566
4e-
4r
4r
=567
2.r
=568
4r
4r
4g-
=569
4ff-
2ff-
=570
2ff-
4ff-
=571
2.ff-[
=572
2ff-]
4ee-
=573
2ee-
4dd-
=574
4ee-
4gg-
4ff-
=575
4cc-[
16cc-]
16dd-
16cc-
16b-
8cc-
8dd-
=576
4b-
4r
4g-
=577
4gg-
2gg-
=578
2gg-
4gg-
=579
2.gg-
=580
4ff
4r
4ee
=581
2dd[
16dd]
16ff-
16dd
16cc#
=582
4dd
4gg-
4bb--
=583
4dd-[
16dd-]
16ee-
16dd-
16cc
8dd-
8ee-
=584
4cc
4r
4a-
=585
2.ff-
=586
2ee-
4dd-
=587
2cc
4ee-
=588
4r
4r
4a-
=589
2.bb--
=590
2aa-
4gg-
=591
2gg-
4ff-
=592
2ee-
4dd-
=593
2cc
4ee-
=594
4r
4r
4dd-
=595
2cc
4ee-
=596
4r
4r
4dd-
=597
2cc
4ee-
=598
4r
4r
4ee-
=599
4r
4r
4ee-
=600
4r
4r
4ee-
=601
4r
4r
4ff-
=602
4r
4r
4ff-
=603
4r
4r
4bb-
=604
4r
4r
4ddd-
=605
4fff-
2fff-
=606
2fff-
4fff-
=607
2.fff-[
=608
2fff-]
4eee-
=609
2eee-
4ddd-
=610
4eee-
4ggg-
4fff-
=611
4ccc-[
16ccc-]
16ddd-
16ccc-
16bb-
8ccc-
8ddd-
=612
4bb-
4r
4gg-
=613
4ggg-
2ggg-
=614
2ggg-
4ggg-
=615
2.ggg-
=616
4fff
4r
4eee
=617
2ddd[
16ddd]
16fff-
16ddd
16ccc#
=618
4ddd
4ggg-
4bbb--
=619
4ddd-[
16ddd-]
16eee-
16ddd-
16ccc
8ddd-
8eee-
=620
4ccc
4r
4aa-
=621
2.fff-
=622
2eee-
4ddd-
=623
2ccc
4eee-
=624
4r
4r
4a-
=625
2.aa-
=626
2gg-
4ff-
=627
2ee-
4gg-
=628
4r
4r
4cc-
=629
2.bb--
=630
2aa-
4gg-
=631
2gg-
4ff-
=632
2ee-
4dd-
=633
2.cc-
=634
2b-
4a-
=635
2g-
4b-
=636
2dd-
4r
=637
4ee-
4r
4ee-
=638
2.gg-[
=639
2gg-]
4ff-
=640
2ee-
4dd-
=641
2.cc-
=642
2b-
4a-
=643
2g-
4b-
=644
2dd-
4ee-
=645
2cc-
4r
=646
4r
4r
4c-
=647
2.b--
=648
2g-
4f-
=649
2e-
4g-
=650
4r
4r
4c-
=651
2.dd-
=652
2b--
4a-
=653
2g-
4b--
=654
4r
4r
4f-
=655
2e-
4g-
=656
4r
4r
4d-
=657
2.c
=658
2.c
=659
2.c[
=660
2c]
4c
=661
2.e-
=662
2d
4c
=663
2B
4d
=664
4r
4r
4G
=665
2.f-
=666
2d
4c
=667
2B
4d
=668
4r
4r
4d
=669
4r
4r
4e
=670
4r
4r
4f
=671
4g-
4r
8r
8GG-
=672
8BB-
8D-
8F-
8G-
8B-
8d-
=673
4f-
4r
8r
8G-
=674
8B-
8d-
8f-
8g-
8b-
8dd-
=675
4ff-
4r
8r
8g-
=676
8b-
8dd-
8ff-
8gg-
8bb-
8ddd-
=677
4fff-
2fff-
=678
2fff-
4fff-
=679
2.fff-[
=680
2fff-]
4eee-
=681
2eee-
4ddd-
=682
4eee-
4ggg-
4fff-
=683
4ccc-[
16ccc-]
16ddd-
16ccc-
16bb-
8ccc-
8ddd-
=684
4bb-
4r
4gg-
=685
4fff-
2ggg-
=686
2ggg-
4ggg-
=687
2.ggg-
=688
4fff
4r
4ddd-
=689
4aaa-
2aaa-
=690
2aaa-
4aaa-
=691
2.aaa-
=692
4ggg
4r
4eee-
=693
4cccc-
2cccc-
=694
2cccc-
4cccc-
=695
4cccc-
2cccc-
=696
2cccc-
4cccc-
=697
4cccc-
8r
8B-
8c-
8A-
=698
4f-
4r
8r
8bb-
=699
4cccc-
8r
8B-
8c-
8A-
=700
4f
4r
4r
=701
4ggg-
2fff-
=702
2ddd-
4aa-
=703
2.gg
=704
4gg-
4r
4gg-
=705
2gg-
4ee-
=706
4ff-
4bb--
4gg
=707
4r
4r
4ff
=708
4gg-
4ddd-
4ccc-
=709
4r
4r
4gg
=710
4aa-
4fff-
4ddd
=711
4ccc-
4aaa-
4ggg-
=712
4ccc-
4bbb-
4aaa-
=713
4ggg-
4r
4r
=714
2.r
=715
4bb-
4r
4r
=716
2.r
=717
2.ccc-
=718
4r
8r
8F
8G-
8E-
=719
4B--
8r
8f
8g-
8e-
=720
4b--
8r
8ff
8gg-
8ee-
=721
8bb--
8gg-
8ee-
8b--
8g-
8e-
=722
4B--
8r
8F
8G-
8E-
=723
4B--
8r
8f
8g-
8e-
=724
4b--
8r
8ff
8gg-
8ee-
=725
8bb--
8gg-
8ee-
8b--
8g-
8f
=726
8e-
8B--
8G-
8F
8G-
8E-
=727
4B-
4r
4r
=728
2.r
=729
4r
8r
8ff
8gg-
8ee-
=730
4bb-
4r
4r
=731
4r
8r
8ff
8gg-
8ee-
=732
4bb-
4r
4r
=733
4r
8r
8ff
8gg-
8ee-
=734
4ccc-
4r
4bb-
=735
4aa-
4r
4gg-
=736
4ff
4r
4ee-
=737
4dd
4r
4r
=738
2.r
=739
4r
8r
8ff
8gg-
8ee-
=740
4bb-
8r
8ff
8gg-
8ee-
=741
4bb-
4r
4r
=742
4r
8r
8aa-
8bb-
8gg-
=743
4ddd-
4r
4r
=744
4r
8r
8ccc
8ddd-
8bb-
=745
4ddd
4eee-
4fff-
=746
2.ggg-
=747
2.fff
=748
4eee-
4ddd-
4ccc
=749
4bb-
4r
4r
=750
4r
4b--
4cc
=751
4ee-
4bb--
4ccc
=752
4ggg-
4fff
4fff
=753
4ggg-
4fff
4fff
=754
4ggg-
4fff
4fff
=755
4ggg-
4fff
4fff
=756
4ggg-
4fff
4fff
=757
4ggg-
4fff
4fff
=758
4ggg-
4fff
4fff
=759
2.r
=760
4ddd-
4bb-
4bb-
=761
2.r
=762
2.r
=763
4r
8r
8f
8g-
8e-
=764
2.r
=765
4r
8r
8F
8G-
8E-
=766
4r
8r
8g-
8g
8e-
=767
4r
8r
8g
8a-
8e-
=768
8r
8a-
8b--
8g-
8a-
8ee-
=769
8r
8b-
8cc-
8b--
8ee-
8gg-
=770
8r
8dd
8ee-
8cc-
8ee-
8bb--
=771
8b--
8ff
8gg-
8ee-
8bb--
8eee-
=772
4ddd
4r
4r
=773
2.r
=774
4cc-
4b-
4b-
=775
4cc-
4b-
4b-
=776
4cc-
4b-
4b-
=777
4cc-
4b-
4b-
=778
4cc-
4b-
4b-
=779
4cc-
4b-
4r
=780
4cc-
4b-
4b-
=781
4cc-
4b-
4b-
=782
2.ee-
=783
2dd-
4ee-
=784
2.dd-
=785
2.cc-
=786
2.b-
=787
8b-
8a-
4g-
4a-
=788
2b-
4cc-
=789
4cc
4dd-
4dd
=790
4ee-
4r
4r
=791
4ff
4r
4gg-
=792
4ff
4r
4r
=793
4ee-
4r
4r
=794
4gg-
4r
4r
=795
4aa-
4r
4bb-
=796
4aa-
4r
4r
=797
4gg-
4r
4r
=798
2.eee-
=799
2ddd-
4eee-
=800
2.ddd-
=801
2.ccc-
=802
2.bb-
=803
8bb-
8aa-
4gg-
4aa-
=804
2.bb-[
=805
4bb-]
8r
8ff
8gg-
8ee-
=806
4bb-
8r
8ff
8gg-
8ee-
=807
4bb-
8r
8ff
8gg-
8ee-
=808
4bb-
4r
4r
=809
2.r
=810
4r
8r
8ff
8gg-
8ee-
=811
4bb-
8r
8ff
8gg-
8ee-
=812
4bb-
4r
4r
=813
4r
8r
8ff
8gg-
8ee-
=814
4ccc-
4r
4bb-
=815
4aa-
4r
4gg-
=816
4ff
4r
4ee-
=817
4dd
4r
4r
=818
2.r
=819
4r
8r
8ff
8gg-
8ee-
=820
4bb-
8r
8ff
8gg-
8ee-
=821
4bb-
4r
4r
=822
4r
8r
8aa-
8bb--
8gg-
=823
4ddd-
4r
4r
=824
4r
8r
8ccc-
8ddd-
8bb--
=825
4fff-
8r
8ccc-
8ddd-
8bb--
=826
4fff-
8r
8ccc-
8ddd-
8bb--
=827
4fff-
4ddd
4ddd
=828
4ddd
4ddd
4ddd
=829
4eee-
4eee-
4eee-
=830
4r
4r
4bb-
=831
2.ccc-
=832
2.bb-
=833
4aa-
4gg-
4ff
=834
4ee-
4r
4b-
=835
2.g-
=836
2.b-
=837
4a-
4g-
4f
=838
2cc
4f
=839
2.ff
=840
2.ee-
=841
2dd-
4cc
=842
4cc
2b-
=843
2.ccc-[
=844
4ccc-]
4r
4r
=845
4r
8r
8d-
8d
8c-
=846
4f
4r
4r
=847
4r
8r
8e
8f
8d
=848
4a-
4r
4r
=849
4r
8r
8b-
8cc-
8f
=850
8dd
8cc#
8dd
8cc-
8ff
8ee
=851
8ff
8dd
8ccc-
8bb-
8ccc-
8ff
=852
8aaa-
8ggg-
8fff
8eee-
8ddd
8ccc-
=853
8bb-
8aa-
8gg-
8ff
8ee-
8dd
=854
8cc-
8b-
8a-
8g-
8f
8e-
=855
8d
8c-
8B-
8A-
8G-
8F
=856
4ee-
4r
4r
=857
4ff
4r
4gg-
=858
4ff
4r
4r
=859
4ee-
4r
4r
=860
4gg-
4r
4r
=861
4aa-
4r
4bb-
=862
4aa-
4r
4r
=863
4gg-
4r
4r
=864
4eee-
4r
4r
=865
4fff
4r
4ggg-
=866
4fff
4r
4r
=867
4eee-
4r
4r
=868
4ggg-
4r
4r
=869
4aaa-
4r
4bbb-
=870
4cccc-
4aaa-
4fff
=871
4ddd
4ccc-
4bb-
=872
4ee-
4f
4g-
=873
4f
4r
4e-
=874
4g-
4a-
4b-
=875
4a-
4r
4g-
=876
4ee-
4ff
4gg-
=877
4ff
4r
4ee-
=878
4gg-
4aa-
4bb-
=879
4aa-
4r
4gg-
=880
4ee-
4ff
4gg-
=881
4ee-
4ff
4gg-
=882
4ee-
4ff
4gg-
=883
4ee-
4ff
4gg-
=884
2.r
=885
2.cc-[
=886
2.cc-]
=887
2.b-
=888
4b--
4ccc
4r
=889
2.r
=890
4b-
4bb-
4r
=891
2.r
=892
4b-
4bb-
4r
=893
2.r
=894
4gg-
4r
4r
=895
4E-
4r
4r
==
*-
